X:1
T:Streets of Laredo
T:Bard of Armagh
B:
Z:Cynthia Cathcart <Clarsaich@aol.com> scots-l 2001-02-24
M:3/4
L:1/8
K:G
D|d4 c B|c2 d3 c |B2 A2 G2 |F2 D3 D | G4 F G | A2 B3 c | B2 A2 G2 | A4 D2 |
d2 ed cB | c2 d3 c | B2 A2 G2 | F2 D2 D2 | G4 F G | A2 d3 c | B2 G2 A2 | G4 |]
